X:12
T:Behind the Haystack
T:Munster Buttermilk
R:Jig
M:6/8
L:1/8
K:D
A|:d2e fdB | d2e fdB | AFE EFE | AFE EFA |
 |d2e fdB | d2e fdB | AFD D2B | AFD D2 A :|
 |:B2B BAF| ABc d2B | AFE EFE | AFE EFA |
 |B2B BAF | ABc d2B | AFD D2B |1AFD D2 A :|2AFD D2 e|
 |:g3 f3 | ede fdB | AFE EFE | AFE EFA |
 |gag fgf | ede fdB | AFD D2B |1AFD D2 e :|2 AFD D2 A|
